X: 14
T: Ballydesmond, The
Z: methylDragon
S: https://thesession.org/tunes/239#setting52632
R: polka
M: 2/4
L: 1/8
K: Ador
|:AB|c2 Bc/B/|AB/A/ G>A|Bd ef|g2 ed|
ea g/a/g/e/|dB GA/B/|ce dB|A2:|
|:A2|ea ag/e/|dg gd|ea a!slide!b|g>{/a}g ed|
ea g/a/g/e/|dB GA/B/|ce dB|A2:|

